other/doodle.svg

<?xml version="1.0" encoding="UTF-8"?>
<svg enable-background="new 0 0 48.0 48.0" version="1.1" viewBox="0 0 48 48" xml:space="preserve" xmlns="http://www.w3.org/2000/svg">
	<path d="m39.64 16.33 4.03 8.06a3.53 3.53 121.82 0 1-1.21 4.44l-23.38 11.29a3.19 3.19 193.05 0 1-4.44-1.62l-9.51-19.28a8.28 8.28 329.58 1 1 14.28-8.39l15.39 32.51" fill="none" stroke="#fff" stroke-linecap="round" stroke-linejoin="round"/>
	<path d="m36.01 4.66c2.22 0 4.01 1.79 4.01 4.01s-1.79 4.01-4.01 4.01-4.01-1.79-4.01-4.01 1.79-4.01 4.01-4.01z" fill="none" stroke="#fff" stroke-linecap="round" stroke-linejoin="round"/>
</svg>

<?xml version="1.0" encoding="utf-8"?>
<svg
	version="1.1"
	xmlns="http://www.w3.org/2000/svg"
	xmlns:xlink="http://www.w3.org/1999/xlink"
	x="0%" y="0%"
	width="100%" height="100%"
	viewBox="0 0 48.0 48.0"
	enable-background="new 0 0 48.0 48.0"
	xml:space="preserve">
	<path
fill="none"
		stroke="#FFFFFF"
		stroke-opacity="1.000"
		stroke-linejoin="round"
		stroke-linecap="round"
		d="M39.64,16.33L43.67,24.39A3.53 3.53 121.82 0 1 42.46,28.83L19.08,40.12A3.19 3.19 193.05 0 1 14.64,38.50L5.13,19.22A8.28 8.28 329.58 1 1 19.41,10.83L34.80,43.34"/>
	<path
fill="none"
		stroke="#FFFFFF"
		stroke-opacity="1.000"
		stroke-linejoin="round"
		stroke-linecap="round"
		d="M36.01,4.66C38.23,4.66,40.02,6.45,40.02,8.67C40.02,10.89,38.23,12.68,36.01,12.68C33.79,12.68,32.00,10.89,32.00,8.67C32.00,6.45,33.79,4.66,36.01,4.66z"/>
</svg>
